docs/svgs/room-front-door.svg

<svg viewBox="0 0 24 24" height="24px" width="24px" fill="#44739e" xmlns="http://www.w3.org/2000/svg"><title>hue:room-front-door</title><desc>Source: https://github.com/arallsopp/hass-hue-icons</desc><path d="M 15.75 15 C 15.75 15.414062 15.414062 15.75 15 15.75 L 9 15.75 C 8.585938 15.75 8.25 15.414062 8.25 15 C 8.25 14.585938 8.585938 14.25 9 14.25 L 15 14.25 C 15.414062 14.25 15.75 14.585938 15.75 15 Z M 8.25 4.5 C 8.25 4.085938 8.585938 3.75 9 3.75 L 10.5 3.75 C 10.914062 3.75 11.25 4.085938 11.25 4.5 L 11.25 9 C 11.25 9.414062 10.914062 9.75 10.5 9.75 L 9 9.75 C 8.585938 9.75 8.25 9.414062 8.25 9 Z M 7.5 12.75 C 7.085938 12.75 6.75 12.414062 6.75 12 C 6.75 11.585938 7.085938 11.25 7.5 11.25 C 7.914062 11.25 8.25 11.585938 8.25 12 C 8.25 12.414062 7.914062 12.75 7.5 12.75 Z M 12.75 4.5 C 12.75 4.085938 13.085938 3.75 13.5 3.75 L 15 3.75 C 15.414062 3.75 15.75 4.085938 15.75 4.5 L 15.75 9 C 15.75 9.414062 15.414062 9.75 15 9.75 L 13.5 9.75 C 13.085938 9.75 12.75 9.414062 12.75 9 Z M 18 0.75 L 6 0.75 C 5.585938 0.75 5.25 1.085938 5.25 1.5 L 5.25 22.5 C 5.25 22.914062 5.585938 23.25 6 23.25 L 18 23.25 C 18.414062 23.25 18.75 22.914062 18.75 22.5 L 18.75 1.5 C 18.75 1.085938 18.414062 0.75 18 0.75 Z M 18 0.75 "/></svg>

<svg viewBox="0 0 24 24" height="24px" width="24px" fill="#44739e" xmlns="http://www.w3.org/2000/svg"><title>hue:room-front-door</title><desc>Source: https://github.com/arallsopp/hass-hue-icons</desc><path d="M15.75,15c0,0.41-0.34,0.75-0.75,0.75H9c-0.41,0-0.75-0.34-0.75-0.75S8.59,14.25,9,14.25h6 C15.41,14.25,15.75,14.59,15.75,15z M8.25,4.5c0-0.41,0.34-0.75,0.75-0.75h1.5c0.41,0,0.75,0.34,0.75,0.75V9 c0,0.41-0.34,0.75-0.75,0.75H9C8.59,9.75,8.25,9.41,8.25,9V4.5z M7.5,12.75c-0.41,0-0.75-0.34-0.75-0.75s0.34-0.75,0.75-0.75 S8.25,11.59,8.25,12S7.91,12.75,7.5,12.75z M12.75,4.5c0-0.41,0.34-0.75,0.75-0.75H15c0.41,0,0.75,0.34,0.75,0.75V9 c0,0.41-0.34,0.75-0.75,0.75h-1.5c-0.41,0-0.75-0.34-0.75-0.75V4.5z M18,0.75H6c-0.41,0-0.75,0.34-0.75,0.75v21 c0,0.41,0.34,0.75,0.75,0.75h12c0.41,0,0.75-0.34,0.75-0.75v-21C18.75,1.09,18.41,0.75,18,0.75z"/></svg>
